X:88
T:Trio To The Duke Of York March. Le4.088
B:L.Leadley MS#4 c1850
Z:Village Music Project, 2016 Steve Mansfield
M:C
L:1/8
Q:2/4=75
N:* ce ab | in Mss
K:A
A3c BABG | A2c2 A2c2 | c3e dcdB | c2e2 c2e2 |
e3a a3e | f2g2 a2 gf | e2(ge) (eddc) | (c4 B2) z2 ||
B3c dcdB | "*"c2e2 a2b2 | B3c dcdB | c2A>A A2z2 |
f2g2 Ta2gf | e3a a3c | b2a2 Tb2a2 | a2aa a2z2 !D.C.!|]

